!!!!SEGMENT: pl-gd--ee-1638--006-001_marenzio-luca--il-quinto-libro-de-madrigalia-a-cinque-voci-sola-angioletta.krn
!!!cenid: 15xx:883
!!!COM: Marenzio, Luca
!!!COM-rismID: pe30003955
!!!CDT: ~1553-1599/08/22
!!!CNT: Italian
!!!GTL: Il Quinto libro de madrigalia a cinque voci
!!!OTL: Sola angioletta
!!!OMV: 001
!!!PDT: 1585
!!!AGN:
!!!SMS-siglum: PL-GD
!!!SMS-shelfmark: Ee 1638
!!!SMS-shelfwork: 006-001 G
!!!SMS-variant:
!!!SMS-altvar:
!!!NIFC-rismSourceID: 990039296
!!!NIFC-islandoraID: pl-gd:57883
!!!URL-pdf-islandora: https://repozytorium.nifc.pl/islandora/object/pl-gd%3A57883/datastream/PDF/view
!!!URL-scan: https://polish.musicsources.pl/pl/lokalizacje/galeria/klocki-introligatorskie/655 @EN{Scan on Polish Music Herritage in Open Access Website} @PL{Skany w portalu Dziedzictwo Muzyki Polskiej w otwartym dostępie}
!!!ONB-nifc: UWAGA: zbiór na stronach: Canto: s. 678-692, Alto: s. 526-540, Tenore: s. 374-388, Basso: s.222-236, Quinto: s. 69-84. Uwaga: utwory podzielone wg tytułów w spisach treści dostępnych na końcu każdej księgi głosowej.
!!!AIN: 1 alto 1 bass 1 soprn 1 tenor 1 vox  
!!!key: G
**kern	**text	**kern	**text	**kern	**text	**kern	**text	**kern	**text
*part5	*part5	*part4	*part4	*part3	*part3	*part2	*part2	*part1	*part1
*staff5	*staff5	*staff4	*staff4	*staff3	*staff3	*staff2	*staff2	*staff1	*staff1
*I"BASSO	*	*I"QVINTO 	*	*I"TENORE	*	*I"ALTO	*	*I"CANTO	*
*I'B	*	*I'V	*	*I'T	*	*I'A	*	*I'S	*
*ICvox	*	*ICvox	*	*ICvox	*	*ICvox	*	*ICvox	*
*Ibass	*	*Ivox  	*	*Itenor	*	*Ialto	*	*Isoprn	*
*clefC4	*	*clefC3	*	*clefC3	*	*clefC2	*	*clefG2	*
*k[]	*	*k[]	*	*k[]	*	*k[]	*	*k[]	*
*G:	*	*G:	*	*G:	*	*G:	*	*G:	*
*M2/1	*	*M2/1	*	*M2/1	*	*M2/1	*	*M2/1	*
*met(C)	*	*met(C)	*	*met(C)	*	*met(C)	*	*met(C)	*
=1-	=1-	=1-	=1-	=1-	=1-	=1-	=1-	=1-	=1-
!	!	!LO:TX:b:i:t=SOla angioletta	!	!	!	!	!	!	!
!LO:TX:a:i:t=Prima parte.	!	!LO:TX:a:i:t=Prima parte.	!	!LO:TX:a:i:t=Prima parte.	!	!LO:TX:a:i:t=Prima parte.	!	!LO:TX:a:i:t=Prima parte.	!
00r	.	00r	.	00r	.	0r	.	1dd	SO-
.	.	.	.	.	.	.	.	2.ee\	la an-
.	.	.	.	.	.	.	.	4cc\	-gio-
=2-	=2-	=2-	=2-	=2-	=2-	=2-	=2-	=2-	=2-
.	.	.	.	.	.	1g	SO-	4.dd\	-let-
.	.	.	.	.	.	.	.	8cc\	-ta
.	.	.	.	.	.	.	.	4dd\	ſtar
.	.	.	.	.	.	.	.	4ee\	ſi in
.	.	.	.	.	.	2.a\	la an-	4ff\	trec-
.	.	.	.	.	.	.	.	8ee\	.
.	.	.	.	.	.	.	.	8dd\	.
.	.	.	.	.	.	.	.	8cc\	.
.	.	.	.	.	.	.	.	8dd\	.
.	.	.	.	.	.	4e/	-gio-	8ee\	.
.	.	.	.	.	.	.	.	8cc\	.
=3-	=3-	=3-	=3-	=3-	=3-	=3-	=3-	=3-	=3-
00r	.	00r	.	1d	SO-	4.f\	-let-	8dd\	.
!	!	!	!	!	!	!	!	!LO:SIC:v:t=custos ff	!
.	.	.	.	.	.	.	.	8ee\	.
!	!	!	!	!	!	!	!	!LO:LB:g=original	!
.	.	.	.	.	.	.	.	2ff\	.
.	.	.	.	.	.	8e/	-ta	.	.
.	.	.	.	.	.	4f\	ſtar	.	.
.	.	.	.	.	.	4g\	ſi in	8ee\	.
.	.	.	.	.	.	.	.	8dd\	.
.	.	.	.	2A/	-la	4a\	trec-	8cc\	.
.	.	.	.	.	.	.	.	8dd\	.
.	.	.	.	.	.	8g\	.	2ee\	-cie
.	.	.	.	.	.	8f\	.	.	.
.	.	.	.	2r	.	8e\	.	.	.
.	.	.	.	.	.	8f\	.	.	.
.	.	.	.	.	.	8g\	.	4b/	a
!	!	!	!	!	!	!LO:SIC:v:t=custos f#	!	!	!
.	.	.	.	.	.	8e\	.	.	.
!	!	!	!	!	!	!LO:LB:g=original	!	!	!
=4-	=4-	=4-	=4-	=4-	=4-	=4-	=4-	=4-	=4-
.	.	.	.	1d	So-	4f#X\	.	4dd\	lom-
.	.	.	.	.	.	2g\	-cie	8cc\	.
.	.	.	.	.	.	.	.	8b\	.
.	.	.	.	.	.	.	.	2a/	.
.	.	.	.	.	.	4f#X\	l om-	.	.
.	.	.	.	2.e\	la an-	2g\	-bra	1g	-bra
.	.	.	.	.	.	4c/	In	.	.
.	.	.	.	4c\	-gio-	2cc\	trec-	.	.
=5-	=5-	=5-	=5-	=5-	=5-	=5-	=5-	=5-	=5-
1G	SO-	00r	.	4.d\	-let-	.	.	4g/	In
.	.	.	.	.	.	8b\	.	4.gg\	trec-
.	.	.	.	8c\	-ta	8a\	.	.	.
.	.	.	.	4d\	ſtar	4b\	.	.	.
.	.	.	.	.	.	.	.	8ff\	.
.	.	.	.	4e\	ſi in	4b\	-cie	8ee\	.
.	.	.	.	.	.	.	.	8dd\	.
2.A/	la an-	.	.	4f\	trec-	2.a\	d'o-	4.cc\	.
.	.	.	.	8e\	.	.	.	.	.
.	.	.	.	8d\	.	.	.	8dd\	-cie
.	.	.	.	8c\	.	.	.	2ee\	d'o-
.	.	.	.	8d\	.	.	.	.	.
4E/	-gio-	.	.	8e\	.	4g\	-ro	.	.
!	!	!	!	!LO:SIC:v:t=custos d	!	!	!	!	!
.	.	.	.	8c\	.	.	.	.	.
!	!	!	!	!LO:LB:g=original	!	!	!	!	!
=6-	=6-	=6-	=6-	=6-	=6-	=6-	=6-	=6-	=6-
!	!	!	!	!	!	!	!	!LO:TX:t=P:problem: w źródle brak custosza	!
4.F/	-let-	.	.	8d\	.	4r	.	2a/	-ro
.	.	.	.	8e\	.	.	.	.	.
.	.	.	.	2f\	.	4a\	In	.	.
8E/	-ta	.	.	.	.	.	.	.	.
!	!	!	!	!	!	!	!	!LO:LB:g=original	!
4F/	ſtar-	.	.	.	.	4a\	trec-	4r	.
4G/	ſi in	.	.	8e\	.	8g\	.	4b/	in
.	.	.	.	8d\	.	8fny\	.	.	.
2A/	trec-	.	.	2c/	.	4e/	.	8cc\	trec-
.	.	.	.	.	.	.	.	8dd\	.
!	!	!	!	!	!	!LO:SIC:v:t=custos b	!	!	!
.	.	.	.	.	.	4cc\	cie a	8ee\	.
.	.	.	.	.	.	.	.	8ff\	.
!	!	!	!	!	!	!LO:LB:g=original	!	!	!
2G/	cie a	.	.	4d\	cie a	4.b\	l om-	4gg\	.
.	.	.	.	2g\	l om-	.	.	4dd\	cie a
.	.	.	.	.	.	16a\	.	.	.
.	.	.	.	.	.	16g\	.	.	.
=7-	=7-	=7-	=7-	=7-	=7-	=7-	=7-	=7-	=7-
1d	l'om-	1r	.	.	.	1a	.	1dd	l'om-
.	.	.	.	8f#X\	.	.	.	.	.
.	.	.	.	8e\	.	.	.	.	.
.	.	.	.	2f#X\	.	.	.	.	.
1G	-bra	2r	.	2g\	-bra	1b	-bra	4dd\	-bra
.	.	.	.	.	.	.	.	4g/	in
.	.	2d\	In	4G/	In	.	.	4.gg\	trec-
.	.	.	.	4.g\	trec-	.	.	.	.
.	.	.	.	.	.	.	.	8ff\	.
=8-	=8-	=8-	=8-	=8-	=8-	=8-	=8-	=8-	=8-
4C/	In	4.g\	trec-	.	.	4r	.	8ee\	.
.	.	.	.	8fny\	.	.	.	8dd\	.
4.c\	trec-	.	.	8e\	.	4g\	In	4.cc\	.
.	.	8f\	.	8d\	.	.	.	.	.
.	.	8e\	.	2c/	.	4.cc\	trec-	.	.
8B\	.	8d\	.	.	.	.	.	8dd\	.
8A\	.	2c\	.	.	.	.	.	4.ee\	.
!LO:SIC:v:t=custos F	!	!	!	!	!	!	!	!	!
8G/	.	.	.	.	.	8b\	.	.	.
4.F/	.	.	.	4f\	-cie	4a\	.	.	.
.	.	.	.	.	.	.	.	8dd\	-cie
.	.	4f\	-cie	4.a\	d'o-	4A/	-cie	2dd\	d'o-
8G/	-cie	.	.	.	.	.	.	.	.
2A\	d'o-	2e\	d'o-	.	.	2a\	d'o-	.	.
.	.	.	.	16g\	.	.	.	.	.
.	.	.	.	16f\	.	.	.	.	.
!	!	!	!	!LO:SIC:v:t=custos f#	!	!	!	!	!
.	.	.	.	4e\	.	.	.	4cc#X\	.
!	!	!	!	!LO:LB:g=original	!	!	!	!	!
=9-	=9-	=9-	=9-	=9-	=9-	=9-	=9-	=9-	=9-
1D	-ro	2d\	-ro	1f#X	-ro	2a\	-ro	1dd	-ro
.	.	4r	.	.	.	4r	.	.	.
!	!	!LO:SIC:v:t=custos g	!	!	!	!	!	!	!
.	.	4d\	E-	.	.	4a\	E	.	.
!	!	!LO:LB:g=original	!	!	!	!	!	!	!
1r	.	2.g\	-di	1r	.	2.b\	di	4r	.
!	!	!	!	!	!	!	!	!LO:SIC:v:t=custos gg	!
.	.	.	.	.	.	.	.	4dd\	e
!	!	!	!	!	!	!	!	!LO:LB:g=original	!
.	.	.	.	.	.	.	.	2.gg\	di
.	.	4f\	piu	.	.	4a\	piu	.	.
=10-	=10-	=10-	=10-	=10-	=10-	=10-	=10-	=10-	=10-
00r	.	2e\	rai	00r	.	2g\	rai	.	.
.	.	.	.	.	.	.	.	4ff\	piu
.	.	2c/	che'l	.	.	2cc\	che'l	4ee\	rai
.	.	.	.	.	.	.	.	4ee\	che'l
!	!	!	!	!	!	!LO:SIC:v:t=custos b	!	!	!
.	.	2g\	ſo-	.	.	2b\	So-	2dd\	ſo-
!	!	!	!	!	!	!LO:LB:g=original	!	!	!
.	.	4g\	-le	.	.	4b\	-le	4dd\	-le
.	.	4.c/	Per	.	.	4.cc\	Per	4.ee\	Per
=11-	=11-	=11-	=11-	=11-	=11-	=11-	=11-	=11-	=11-
.	.	8d\	mia	.	.	8b\	mia	8dd\	mia
.	.	4.f\	ra-	.	.	4.a\	ra-	4.ccny\	ra-
.	.	8g\	-ra	.	.	8g\	-ra	8b/	-ra
.	.	4e\	ven-	.	.	4g\	ven-	4g/	ven-
.	.	4.d\	-tu-	.	.	4.f#X\	-tu-	4.a/	-tu-
.	.	8B/	-ra	.	.	8g\	-ra	8b/	-ra
.	.	4c/	vid'-	.	.	4e/	vi	4g/	vi
.	.	4e\	-un	.	.	2g\	d'un	4g/	d'un
=12-	=12-	=12-	=12-	=12-	=12-	=12-	=12-	=12-	=12-
2r	.	2d\	gior-	2r	.	.	.	2a/	gior-
.	.	.	.	.	.	4f#X\	gior-	.	.
4r	.	2G/	-no	4r	.	2g\	-no	2b/	-no
4G/	E	.	.	4d\	E	.	.	.	.
4G/	col	1r	.	4B/	col	2r	.	2r	.
4A/	bel	.	.	4c/	bel	.	.	.	.
2G/	vi-	.	.	2d\	vi-	4r	.	4r	.
!	!	!	!	!	!	!	!	!LO:SIC:v:t=custos b	!
.	.	.	.	.	.	4b\	E	4dd\	e
!	!	!	!	!	!	!	!	!LO:LB:g=original	!
=13-	=13-	=13-	=13-	=13-	=13-	=13-	=13-	=13-	=13-
2G/	-ſo	2r	.	2d\	-ſo	4g\	col	4b/	col
.	.	.	.	.	.	4a\	bel	4cc\	bel
4r	.	2g\	e	4r	.	4.b\	vi-	4.dd\	vi-
4G/	e	.	.	4d\	e	.	.	.	.
.	.	.	.	.	.	8b\	ſo e	8dd\	ſo e
4.G/	con	4.g\	con	4.d\	con	4b\	con	4dd\	con
!	!	!	!	!	!	!LO:SIC:v:t=custos a	!	!	!
.	.	.	.	.	.	4g\	la	4b/	la
!	!	!LO:SIC:v:t=custos c	!	!	!	!	!	!	!
8G/	la	8g\	la	8d\	la	.	.	.	.
!	!	!LO:LB:g=original	!	!	!	!LO:LB:g=original	!	!	!
4F/	biã(n)-	4c/	bian-	4fny\	bian-	4a\	niã(n)-	4cc\	bian-
4D/	-ca	4f\	-ca	4F/	-ca	4b\	-ca	4dd\	-ca
=14-	=14-	=14-	=14-	=14-	=14-	=14-	=14-	=14-	=14-
1C	ma-	1g	ma-	1c	ma-	1cc	ma-	1ee	ma-
!LO:SIC:v:t=custos G	!	!	!	!	!	!	!	!	!
1G	-no	1g	-no	1d	-no	1b	-no	1dd	-no
=15-	=15-	=15-	=15-	=15-	=15-	=15-	=15-	=15-	=15-
4G/	Far	1r	.	4B/	Far	4g\	Far	4dd\	Far
8G/	lie-	.	.	8B/	lie-	8g\	lie-	8dd\	lie-
8A/	-te	.	.	8A/	-te	8e/	-te	8cc\	-te
4G/	l'herb'-	.	.	4B/	l'herb-	4g\	l'herb'-	4dd\	l'herb-
!	!	!	!	!LO:SIC:v:t=custos A	!	!	!	!	!
4E/	-ei	.	.	4c/	-ei	4g\	-ei	4ee\	e i
!	!	!	!	!LO:LB:g=original	!	!	!	!	!
1D	fior	4d\	Far	2A/	fior	1a	fior	1ff	fior
.	.	8d\	lie-	.	.	.	.	.	.
.	.	8c\	-te	.	.	.	.	.	.
.	.	4d\	l'herb'-	2r	.	.	.	.	.
.	.	4e\	-ei	.	.	.	.	.	.
=16-	=16-	=16-	=16-	=16-	=16-	=16-	=16-	=16-	=16-
4d\	far	4f\	fior	4f\	far	4a\	far	4ff\	far
8d\	lie-	4r	.	8f\	lie-	8a\	lie-	8ff\	lie-
8e\	-te	.	.	8c\	-te	8g\	-te	8ee\	-te
4f\	l herb'-	2r	.	4f\	l herb'	4a\	l'herb'	4cc\	l her-
!	!	!	!	!	!	!	!	!LO:SIC:v:t=custos ee	!
4d\	-ei	.	.	4f\	ei	4b\	ei	4dd\	be i
*	*	*	*ij	*	*	*	*	*	*
!	!	!	!	!	!	!	!	!LO:LB:g=original	!
1c	fior	4e\	Far	1g	fior	1cc	fior	1ee	fior
.	.	8e\	lie-	.	.	.	.	.	.
.	.	8d\	-te	.	.	.	.	.	.
.	.	4e\	l'herb'	.	.	.	.	.	.
.	.	4f\	ei	.	.	.	.	.	.
=17-	=17-	=17-	=17-	=17-	=17-	=17-	=17-	=17-	=17-
*	*	*	*	*	*ij	*	*	*	*
4c\	far	4g\	fior	4e\	far	4g\	far	4ee\	far
8c\	lie-	4r	.	8e\	lie-	8g\	lie-	8ee\	lie-
8d\	-te	.	.	8a\	-te	8fny\	-te	8dd\	-te
4c\	l'herb'-	2r	.	4e\	l'herb'	4g\	l'herb'	4ee\	l her-
!	!	!	!	!	!	!LO:SIC:v:t=custos b-	!	!	!
4A/	-ei	.	.	4c/	ei	4a\	ei	4ff#X\	be i
*	*	*	*Xij	*	*	*	*	*	*
!	!	!	!	!	!	!LO:LB:g=original	!	!	!
4G/	fior	1g	d'un	1d	fior	2b-X\	fior	1gg	fior
!LO:SIC:v:t=custos G	!	!	!	!	!	!	!	!	!
4G/	d'un	.	.	.	.	.	.	.	.
8G/	uer-	.	.	.	.	2b-\	d'un	.	.
8A/	.	.	.	.	.	.	.	.	.
8B-X\	.	.	.	.	.	.	.	.	.
8G/	.	.	.	.	.	.	.	.	.
*	*	*	*	*	*Xij	*	*	*	*
=18-	=18-	=18-	=18-	=18-	=18-	=18-	=18-	=18-	=18-
!	!	!LO:SIC:v:t=custos g	!	!	!	!	!	!	!
2A/	.	1c	uer-	0r	.	1a	uer-	4ee\	d'un
.	.	.	.	.	.	.	.	4.aa\	ver-
2F/	-de	.	.	.	.	.	.	.	.
.	.	.	.	.	.	.	.	8gg\	.
.	.	.	.	.	.	.	.	8ffny\	.
.	.	.	.	.	.	.	.	8ee\	.
*lig	*	*	*	*	*	*	*	*	*
!	!	!LO:LB:g=original	!	!	!	!	!	!	!
1G	col-	1g	-de	.	.	1b-X	-de	4dd\	.
.	.	.	.	.	.	.	.	4.gg\	-de
.	.	.	.	.	.	.	.	8ff\	.
.	.	.	.	.	.	.	.	8ee\	.
.	.	.	.	.	.	.	.	8dd\	.
=19-	=19-	=19-	=19-	=19-	=19-	=19-	=19-	=19-	=19-
1A	.	1e	col-	1r	.	1a	col-	4cc#X\	.
.	.	.	.	.	.	.	.	2dd\	col-
.	.	.	.	.	.	.	.	4cc#X\	.
!	!	!	!	!	!	!	!	!LO:SIC:v:t=custos dd	!
*Xlig	*	*	*	*	*	*	*	*	*
1D	-le	1d	-le	2r	.	1a	-le	1dd	-le
.	.	.	.	2.d\	Che	.	.	.	.
!	!	!	!	!	!	!	!	!LO:LB:g=original	!
=20-	=20-	=20-	=20-	=20-	=20-	=20-	=20-	=20-	=20-
2.G/	Che	0r	.	.	.	0r	.	2.b/	Che
.	.	.	.	4d\	per	.	.	.	.
.	.	.	.	2d\	me	.	.	.	.
4G/	per	.	.	.	.	.	.	4b/	per
2G/	me-	.	.	4B/	ſia	.	.	2b/	me
!	!	!	!	!LO:SIC:v:t=custos c	!	!	!	!	!
.	.	.	.	4d\	lo-	.	.	.	.
!	!	!	!	!LO:LB:g=original	!	!	!	!	!
4E/	-ſia	.	.	2c/	-da-	.	.	4g/	ſia
4F/	lo-	.	.	.	.	.	.	4a/	lo-
=21-	=21-	=21-	=21-	=21-	=21-	=21-	=21-	=21-	=21-
2G/	-da-	1g	In	4.B/	.	2r	.	2b/	-da-
.	.	.	.	8c/	.	.	.	.	.
2G/	-to	.	.	2d\	-to	2.g\	Che	2b/	-to
2.c\	Che	2e\	ciaſ-	1r	.	.	.	2.ee\	Che
.	.	.	.	.	.	4g\	per	.	.
.	.	2g\	-cun	.	.	2e/	me	.	.
4c\	per	.	.	.	.	.	.	4ee\	per
=22-	=22-	=22-	=22-	=22-	=22-	=22-	=22-	=22-	=22-
2c\	me-	1c	tem-	1r	.	4e/	ſia	2ee\	me
.	.	.	.	.	.	4g\	lo-	.	.
4A\	-ſia	.	.	.	.	2f\	-da-	4ccny\	ſia
!LO:SIC:v:t=custos c	!	!	!	!	!	!	!	!	!
4Bny\	lo-	.	.	.	.	.	.	4dd\	lo-
2c\	-dat`(o)	1g	-po	2r	.	2e/	-to	1ee	-da-
2c\	in	.	.	2g\	in	2.cc\	Che	.	.
=23-	=23-	=23-	=23-	=23-	=23-	=23-	=23-	=23-	=23-
2A/	ciaſ-	2.c/	Che	2a\	ciaſ-	.	.	1ee	-to
.	.	.	.	.	.	4cc\	per	.	.
2c\	-cun	.	.	2g\	-sun	2cc\	me	.	.
.	.	4c/	per	.	.	.	.	.	.
1F	tem-	2c/	me	1f	tem-	4a\	ſia	1r	.
!	!	!	!	!	!	!LO:SIC:v:t=custos cc	!	!	!
.	.	.	.	.	.	4bny\	lo-	.	.
!	!	!	!	!	!	!LO:LB:g=original	!	!	!
.	.	2.c/	ſia	.	.	1cc\	-da-	.	.
=24-	=24-	=24-	=24-	=24-	=24-	=24-	=24-	=24-	=24-
1c	-po	.	.	2e\	-po	.	.	2.gg\	Che
.	.	4d\	lo-	.	.	.	.	.	.
.	.	1e	-da-	2.g\	Che	1c	to in	.	.
.	.	.	.	.	.	.	.	4gg\	per
1r	.	.	.	.	.	.	.	2gg\	me
.	.	.	.	4g\	per	.	.	.	.
.	.	2e\	-to	2c/	me	2g\	ciaſ-	4ee\	ſia
!	!	!	!	!	!	!	!	!LO:SIC:v:t=custos gg	!
.	.	.	.	.	.	.	.	4ff\	lo-
!	!	!	!	!	!	!	!	!LO:LB:g=original	!
=25-	=25-	=25-	=25-	=25-	=25-	=25-	=25-	=25-	=25-
1G	In	4d\	ſia	4B/	ſia	0g	-cũ(n)	2gg\	-da-
!	!	!LO:SIC:v:t=custos B	!	!	!	!	!	!	!
.	.	4c/	lo-	4c/	lo-	.	.	.	.
!	!	!LO:LB:g=original	!	!	!	!	!	!	!
.	.	2B/	-da-	2d\	-da-	.	.	2dd\	to in
2E/	ciaſ-	4B/	to in	2G/	-to	.	.	2ee\	ciaſ-
.	.	2c/	ciaſ-	.	.	.	.	.	.
2G/	-cun	.	.	4r	.	.	.	2dd\	-cũ(n)
!	!	!	!	!LO:SIC:v:t=custos e	!	!	!	!	!
.	.	4B/	-cun	4g\	in	.	.	.	.
!	!	!	!	!LO:LB:g=original	!	!	!	!	!
=26-	=26-	=26-	=26-	=26-	=26-	=26-	=26-	=26-	=26-
0C	tem-	2.c/	tem-	2e\	ciaſ-	4g\	tem-	0cc	tem-
.	.	.	.	.	.	4f\	.	.	.
.	.	.	.	2g\	-cũ(n)	4e/	.	.	.
.	.	8B/	.	.	.	4d/	.	.	.
.	.	8A/	.	.	.	.	.	.	.
.	.	2G/	.	1c	tem-	1e	.	.	.
.	.	2A/	.	.	.	.	.	.	.
=27-	=27-	=27-	=27-	=27-	=27-	=27-	=27-	=27-	=27-
00G	-po.	00B	-po.	00d	-po.	00g	-po.	00b	-po.
==	==	==	==	==	==	==	==	==	==
*-	*-	*-	*-	*-	*-	*-	*-	*-	*-
!!!system-decoration: [(s1,s2,s3,s4,s5)]
!!!ENC: Mateusz Solarz
!!!END: 2022-06-09
!!!ENC: Natalia Wrzos
!!!END: 2022-07-18
